!!!OTL: WIE WIRD MIR DENN GESCHEHEN
!!!ARE: Europa, Mitteleuropa, Deutschland
!!!SCT: E1680
!!!YEM: Copyright 1995, estate of Helmut Schaffrath.
**kern
*ICvox
*Ivox
*M4/4
*k[b-]
*F:
{4cc
=1
4.cc
8cc
4cc
4cc
=2
2a
4a}
{4f
=3
4g
4a
4b-
4cc
=4
2a
4r}
{4cc
=5
4.cc
8cc
4cc
4cc
=6
2a
4a}
{4f
=7
4g
4a
4b-
4cc
=8
2a
4r}
{4g
=9
4.g
8f
4e
4f
=10
2.g}
{4g
=11
4.g
8f
4e
4f
=12
2g
4r}
{4cc
=13
4cc
4a
4b-
4cc
=14
2dd
4dd}
{8cc
8b-
=15
4a
4f
4f
4e
=16
2.f}
==
!!!AGN: Staende -, Hofe -, Ritter - Lied, Liebe
!!!ONB: ESAC (Essen Associative Code) Database: ERK3
!!!AMT: simple quadruple
!!!AIN: vox
!!!EED: Helmut Schaffrath
!!!EEV: 1.0
*-
